X:1
T:Title
%%score { ( 1 3 4 ) | ( 2 5 ) }
L:1/8
M:4/4
K:Ab
V:1 treble nm="Grand Piano"
V:3 treble 
V:4 treble 
V:2 bass 
V:5 bass 
V:1
 z4 z2[Q:1/4=106] [CA]>[DB] | [Ec]>[DB] [CA]>[Ec] B>A G>B | [CA]4 [CE]2 [CA]>[DB] | %3
 [Ec]>[Ec] [Ec]>[Ec] e>e A>c | B6 B>c | d>c B>A [B,EG]2 [A,EA]>[EB] | %6
 [Ec]>[DB] [CA]>[DF] [CE]2 [A,E]>[A,E] | [A,DF]2 [DFB]2 [CEA]2 [B,DG]2 |[M:3/4] [A,CA]6 | %9
[M:1/4] c>d |[M:4/4] e6 z2 | B6 z2 | d6 z2 | A6 z2 |[M:9/8] [DF]2 [FA]- [FA] [Fd]2- [Fd][DF]>[DF] | %15
 [CE]2 [CA]- [CA] [Ec]2- [Ec][CA]>[CA] |[M:4/4] B>B F>F G>G c>B |[M:3/4] [CA]6 |] %18
V:2
 z4 z2 [A,,E,]>[A,,E,] | [A,,A,]>[A,,A,] [A,,A,]>[A,,A,] [E,G,D]>[E,C] [E,B,]>[E,D] | %2
 [A,,E,]4 [A,,A,]2 [A,,E,]>[A,,E,] | [A,,A,]>[A,,A,] [A,,A,]>[A,,A,] [A,CE]>[A,CE] [A,CE]>[A,E] | %4
 [E,G,E]6 [E,G,E]>[E,A,E] | [E,B,E]>[E,A,E] [E,DE]>[E,CE] E,>D, C,>[B,,G,] | %6
 [A,,A,]>[A,,A,] [A,,A,]>[A,,A,] [A,,A,]2 C,>C, | D,2 B,,2 E,2 E,2 |[M:3/4] A,,6 | %9
[M:1/4] [A,E]>[A,B,E] |[M:4/4] [A,CE]>[A,C] [A,C]>[A,C] [A,C]2 [G,B,E]>[A,E] | %11
 [E,G,E]>[E,G,] [E,G,]>[E,G,] [E,G,]2 [E,G,E]>[E,A,] | %12
 [E,B,]>[E,B,] [E,B,]>[E,B,] z z/ E/ [E,A,E]>[E,D] | %13
 [A,,E,]>[A,,E,] [A,,E,]>[A,,E,] [A,,E,]2 [A,,A,]>[A,,A,] | %14
[M:9/8] [D,A,]2 [D,D]- [D,D] [D,A,]2- [D,A,][D,A,]>[D,A,] | %15
 [A,,A,]2 [A,,E,]- [A,,E,] [A,,A,]2- [A,,A,][A,,E,]>[A,,E,] | %16
[M:4/4] [D,F,D]>[D,F,D] [D,B,D]>[D,B,D] [E,B,D]>[E,B,D] [E,A,E]>[E,D] |[M:3/4] [A,,E,]6 |] %18
V:3
 x8 | x8 | x8 | x8 | x8 | x8 | x8 | x8 |[M:3/4] x6 |[M:1/4] x2 |[M:4/4] z z/ E/ E>E z z/ c/ d>c | %11
 z z/ E/ E>E E2 B>[Ac] | G>G G>G G>G c>B | C>C C>C C2 [CE]>[CE] |[M:9/8] x9 | x9 |[M:4/4] x8 | %17
[M:3/4] x6 |] %18
V:4
 x8 | x8 | x8 | x8 | x8 | x8 | x8 | x8 |[M:3/4] x6 |[M:1/4] x2 |[M:4/4] z4 E2 z2 | x8 | x8 | x8 | %14
[M:9/8] x9 | x9 |[M:4/4] x8 |[M:3/4] x6 |] %18
V:5
 x8 | x8 | x8 | x8 | x8 | x8 | x8 | x8 |[M:3/4] x6 |[M:1/4] x2 |[M:4/4] x8 | x8 | z4 [E,B,]2 z2 | %13
 x8 |[M:9/8] x9 | x9 |[M:4/4] x8 |[M:3/4] x6 |] %18

